X: 2
T: Marche Des Cabrettaires
R:march, polka
M:4/4
L:1/8
K:Gmaj
zD GA |:\
B>B BB | Bc BA | G4 | z D GA |\
B2 G2 | F2 G2 | A4 | z A AB |
c>c cc | cd cB | A4 | z A Bc |\
d>d de | dc BA |1 B3 A | GD GA :|2 G>A BA | G3 d ||
|:\
Bd Bd | B3 d | ed cB | c A2 c |\
Ac Ac | A3 d | dc BA |1 B G2 d :|2 GD GA |

%%sep 1 1 500
